public/img/gusli.svg

<svg fill="none" height="146" viewBox="0 0 226 146" width="226" xmlns="http://www.w3.org/2000/svg" xmlns:xlink="http://www.w3.org/1999/xlink"><clipPath id="a"><path d="m0 0h208.52v94.784h-208.52z" transform="matrix(.96588109 -.25898594 .25898594 .96588109 0 54.0039)"/></clipPath><g clip-path="url(#a)"><path d="m61.1926 129.408c-2.2316-11.875-2.7796-47.4341 14.7208-68.5344s30.6816-22.4149 31.3226-19.6216c.642 2.7932-34.106 36.4859-33.4682 58.1395.6377 21.6535 1.7803 24.3705-.3537 25.8955-2.1339 1.524-12.2215 4.121-12.2215 4.121z" fill="#ff3939"/><path d="m122.52 59.6083c-2.572 2.3956-1.995 11.0951 5.401 12.2676 7.396 1.1726 9.076-11.0971 4.491-13.2139-4.585-2.1169-6.941-1.8246-9.902.9406z" fill="#ff3939"/><path d="m24.1837 123.346c-.9109 14.118 10.5039 19.622 15.0203 15.553 4.5165-4.068 7.1129-37.754 14.7757-56.6225 7.0502-17.354 17.0507-28.1524 30.6857-36.455 13.635-8.3025 4.8695-13.7792 1.489-12.9805-3.3804.7987-25.8642 15.3916-36.4572 33.4637-10.5931 18.072-25.5135 57.0413-25.5135 57.0413z" fill="#ff3939"/><g fill="#000"><path d="m31.5954 139.714c-.2086.056-.4173.111-.6398.146-3.5976.7-6.8468-.823-8.9261-4.191-2.1629-3.495 1.7816-21.002 15.5382-51.1534 14.5689-31.9099 50.2016-53.7142 53.0746-54.7993 2.1287-.8027 5.0886.5985 6.0843 2.8909.5774 1.3195 1.2371 4.7372-5.0596 7.8502-40.3266 19.3109-52.6825 85.9776-53.9595 93.5096-.4283 2.541-3.0002 4.904-6.1142 5.739zm59.9889-107.782s-.0619.0165-.0928.0248c-2.6706 1.006-37.743 22.892-51.7354 53.5539-14.5874 31.9643-16.8765 46.9653-15.6871 48.8993 2.0891 3.374 4.9245 3.384 6.4293 3.096 2.5724-.507 4.5852-2.422 4.8357-3.897 1.305-7.705 13.8769-75.4812 55.2835-95.3053 3.1156-1.5394 4.5474-3.2734 3.9074-4.7334-.4927-1.1269-2.0752-1.8704-2.9406-1.6383z"/><path d="m35.2962 142.672s-.0541.014-.0773.021c-5.4771 1.319-7.937-1.831-8.4728-3.675-.1875-.638.1816-1.3.8188-1.487.6233-.209 1.2994.181 1.4868.819.0984.305 1.1102 3.09 5.5997 2.01 2.6732-.626 45.4104-17.063 91.5826-35.332 61.095-24.1756 86.625-35.1293 90.651-37.5672-1.456-3.1131-8.902-16.3978-35.095-31.5141-26.101-15.0829-66.796-10.8303-86.0817-3.2157-.6052.2451-1.3168-.0611-1.5562-.6761-.2394-.6149.0611-1.3167.676-1.5562 20.3039-8.0199 61.0799-12.2777 88.1739 3.3588s35.088 29.2631 36.475 33.5379c.108.3436.076.7167-.109 1.0478-.454.8092-1.644 2.9505-90.951 38.3018-43.6004 17.265-89.3964 34.928-93.1131 35.925z"/><path d="m59.3073 128.307c-.5796.156-1.1979-.142-1.4269-.719-.2395-.615.061-1.316.676-1.556l154.4366-61.0723c.615-.2394 1.316.0611 1.556.676.239.615-.061 1.3168-.676 1.5562l-154.4365 61.0721c-.0463.013-.0927.025-.1313.036z"/><path d="m131.655 72.7633c-1.136.3046-2.386.4326-3.632.3276-2.724-.2137-4.92-1.4552-6.015-3.4063-1.411-2.5123-1.245-5.754.42-8.0721 1.537-2.1433 4.023-3.0666 6.822-2.5417 3.238.6145 5.687 2.5503 6.716 5.3059.827 2.2215.566 4.6768-.671 6.2425-.773.9776-2.095 1.7298-3.648 2.1462zm-5.081-11.2853c-.888.2382-1.636.7535-2.197 1.5335-1.117 1.5501-1.232 3.8089-.281 5.5004.952 1.6993 2.989 2.0975 4.114 2.1851 2.131.1656 4.369-.509 5.211-1.5712.716-.9126.84-2.4866.308-3.9174-.431-1.1434-1.636-3.1644-4.916-3.784-.812-.155-1.561-.1365-2.233.0438z"/><path d="m68.9142 124.506-6.8076 1.825c-.6413.172-1.2978-.207-1.4698-.848l-.8847-3.3c-.1409-.525.0923-1.076.5573-1.35.8975-.514 1.6889-.991 2.3825-1.401 2.6703-1.594 3.7845-2.257 4.8244-1.931.4351.14.7818.444.9695.866.4192.915 1.1388 4.093 1.2814 4.717.1425.625-.2349 1.256-.8608 1.424zm-6.2701-.804 4.5281-1.214c-.213-.887-.4524-1.842-.6398-2.479-.6237.3-1.6226.899-2.6025 1.477-.4938.289-1.0277.615-1.6157.955l.3356 1.251z"/><path d="m61.2219 123.032c-.1314.035-.2689.047-.4127.036-.6608-.055-1.148-.637-1.101-1.295.0948-1.161 2.4365-28.5991 9.0176-42.6054l.541-1.1639c6.3242-13.4818 13.4812-28.769 35.0972-39.7415.525-.2651 1.17-.115 1.514.3643s.297 1.138-.121 1.5565c-18.86 18.8723-34.6701 37.8131-37.1685 78.753-.0393.657-.6147 1.167-1.2713 1.128-.6643-.038-1.1649-.607-1.1277-1.272 2.2736-37.268 15.3456-56.6591 31.7777-74.0522-15.1318 9.9794-20.9108 22.3129-26.5289 34.2885l-.5488 1.1659c-6.3956 13.617-8.7743 41.5048-8.7987 41.7848-.0436.517-.413.93-.8844 1.057z"/><path d="m73.6852 122.622c-.1159.031-.2436.048-.3699.041-.6643-.037-1.1706-.597-1.1334-1.262.0095-.242 1.3348-24.7995 6.8326-41.4557 5.1453-15.5925 22.3195-33.8308 25.3805-36.9955l-.643-3.3889c-.126-.6538.286-1.2779.958-1.3999.653-.1256 1.282.3023 1.4.9581l.756 3.9964c.071.3869-.046.7828-.327 1.0651-.194.2012-19.8838 20.2733-25.2452 36.5119-5.3962 16.3556-6.7019 40.5845-6.7191 40.8295-.0317.53-.3949.967-.8895 1.1z"/><path d="m138.265 27.3578c-.232.0622-.49.0569-.731-.0361-.617-.2321-.935-.9252-.695-1.5445l2.737-7.2441c.232-.6171.927-.9278 1.544-.6957.618.2321.936.9253.696 1.5445l-2.737 7.2441c-.139.3769-.451.6345-.814.7318z"/><path d="m91.3458 40.1536c-.4096.1098-.8443-.1215-.9716-.5346-.1295-.4208.1054-.8731.5263-1.0025l47.4315-14.8053c.404-.133.874.1054 1.003.5263.129.4208-.106.8731-.526 1.0025l-47.4323 14.8053s-.0232.0062-.0309.0083z"/><path d="m144.467 34.4579c-.231.0622-.49.0569-.73-.0361-.617-.2321-.935-.9252-.696-1.5445l2.738-7.2441c.232-.6171.927-.9278 1.544-.6957s.936.9253.696 1.5445l-2.737 7.2441c-.14.3769-.452.6345-.815.7318z"/><path d="m103.783 46.907c-.402.1077-.825-.1102-.963-.5037-.145-.4167.072-.8726.489-1.0174l41.186-14.4392c.411-.1351.872.0725 1.017.4892s-.073.8726-.489 1.0174l-41.186 14.4392s-.039.0103-.062.0165z"/><path d="m69.2526 59.0151c-.4018.1078-.8247-.1101-.9633-.5037-.1449-.4167.0725-.8725.4892-1.0174l17.8073-6.2407c.4167-.1449.8725.0725 1.0174.4892s-.0725.8725-.4892 1.0174l-17.8073 6.2407s-.0386.0104-.0618.0166z"/><path d="m157.123 39.1235c-.232.0621-.49.0568-.73-.0361-.617-.2321-.936-.9253-.696-1.5446l2.737-7.244c.232-.6172.928-.9279 1.545-.6958s.935.9253.696 1.5445l-2.738 7.2441c-.139.3769-.451.6345-.814.7319z"/><path d="m91.7552 60.9576c-.3941.1056-.8149-.1046-.9633-.5037-.1526-.4147.0647-.8705.4794-1.0231l65.8747-23.8339c.399-.1484.878.0627 1.023.4794.153.4147-.064.8705-.479 1.0231l-65.8751 23.8339s-.0463.0124-.0695.0186z"/><path d="m58.4214 73.0184c-.3941.1057-.8149-.1045-.9633-.5037-.1526-.4146.0647-.8705.4793-1.0231l19.0788-6.9047c.4146-.1526.8705.0648 1.023.4794.1526.4147-.0647.8705-.4794 1.0231l-19.0787 6.9047s-.0463.0124-.0695.0186z"/><path d="m170.636 43.9569c-.232.0621-.49.0568-.731-.0361-.617-.2321-.935-.9253-.695-1.5445l2.737-7.2441c.232-.6172.925-.9356 1.544-.6957.618.232.936.9252.696 1.5445l-2.737 7.244c-.139.3769-.451.6345-.814.7319z"/><path d="m83.2003 74.3671c-.3941.1056-.8149-.1046-.9613-.496-.1526-.4146.0627-.8782.4773-1.0308l87.9347-32.4076c.425-.147.879.0627 1.031.4773.153.4146-.062.8782-.477 1.0308l-87.9373 32.3999s-.0463.0124-.0695.0186z"/><path d="m51.9472 85.8778c-.3941.1057-.8149-.1045-.9613-.496-.1526-.4146.0627-.8782.4774-1.0308l18.6407-6.87c.4244-.147.8782.0627 1.0308.4773s-.0627.8782-.4773 1.0308l-18.6408 6.8701s-.0463.0124-.0695.0186z"/><path d="m178.155 51.118c-.232.0622-.49.0569-.731-.0361-.617-.2321-.935-.9253-.695-1.5445l2.737-7.2441c.232-.6171.925-.9355 1.545-.6957.617.2321.935.9253.695 1.5445l-2.737 7.2441c-.139.3769-.451.6344-.814.7318z"/><path d="m79.5304 86.0105c-.3941.1057-.8149-.1045-.9535-.4981-.1526-.4146.055-.8761.4696-1.0287l99.1315-36.8924c.413-.1603.876.055 1.029.4696.152.4147-.055.8762-.47 1.0287l-99.1314 36.8924s-.0464.0125-.0695.0187z"/><path d="m47.1762 98.0488c-.394.1057-.8148-.1045-.9535-.498-.1526-.4147.055-.8762.4696-1.0287l19.062-7.0907c.3992-.1485.8761.0549 1.0287.4696.1526.4146-.055.8761-.4696 1.0287l-19.062 7.0907s-.0463.0124-.0695.0186z"/><path d="m185.249 58.393c-.232.0621-.49.0568-.73-.0361-.617-.2321-.936-.9253-.696-1.5445l2.737-7.2441c.232-.6172.928-.9278 1.545-.6957.617.232.935.9252.696 1.5445l-2.738 7.244c-.139.3769-.451.6345-.814.7319z"/><path d="m76.677 96.1269c-.3941.1057-.8149-.1045-.9612-.496-.1526-.4146.0627-.8782.4794-1.023l109.0788-39.7336c.409-.1428.871.0647 1.023.4794.153.4146-.062.8782-.479 1.023l-109.0792 39.7336s-.0463.0125-.0695.0187z"/><path d="m43.846 108.086c-.3941.105-.8149-.105-.9613-.496-.1525-.415.0627-.879.4794-1.023l20.3432-7.4098c.4069-.1505.8782.0627 1.0231.4794.1448.4164-.0627.8784-.4794 1.0234l-20.3432 7.409s-.0464.012-.0695.019z"/><path d="m196.957 62.3935c-.232.0621-.49.0568-.73-.0361-.617-.2321-.936-.9253-.696-1.5445l2.737-7.2441c.232-.6172.928-.9278 1.545-.6958.617.2321.935.9253.696 1.5446l-2.738 7.244c-.139.3769-.451.6345-.814.7319z"/><path d="m75.4774 106.015c-.3941.106-.8071-.106-.9514-.49-.1526-.415.0549-.876.4696-1.029l121.9864-45.6212c.407-.1505.876.055 1.029.4696s-.055.8761-.47 1.0287l-121.9863 45.6209s-.0464.013-.0773.021z"/><path d="m40.9319 118.93c-.3941.106-.8072-.106-.9515-.49-.1526-.415.055-.876.4696-1.029l21.2288-7.936c.3992-.149.8761.055 1.0287.469.1526.415-.0549.876-.4696 1.029l-21.2288 7.937s-.0463.012-.0772.02z"/><path d="m209.03 65.6576c-.232.0621-.49.0568-.73-.0361-.617-.2321-.936-.9253-.696-1.5445l2.738-7.2441c.232-.6172.925-.9356 1.544-.6958.617.2321.936.9253.696 1.5446l-2.738 7.244c-.139.3769-.451.6345-.814.7319z"/><path d="m74.2427 115.805c-.3864.103-.8051-.099-.9494-.483-.1603-.413.0473-.874.4598-1.034l135.2949-52.147c.413-.1603.874.0472 1.034.4598.161.4125-.047.874-.459 1.0343l-135.2953 52.1469s-.0541.014-.085.023z"/><path d="m37.9264 129.808c-.3864.103-.8051-.099-.9494-.483-.1603-.412.0472-.874.4598-1.034l22.6108-8.713c.4224-.155.8741.047 1.0344.459.1603.413-.0472.875-.4598 1.035l-22.6109 8.713s-.054.015-.0849.023z"/></g></g></svg>

<svg width="226" height="146" viewBox="0 0 226 146" fill="none" xmlns="http://www.w3.org/2000/svg">
<g clip-path="url(#clip0_242_3692)">
<path d="M61.1926 129.408C58.961 117.533 58.413 81.9739 75.9134 60.8736C93.4138 39.7733 106.595 38.4587 107.236 41.252C107.878 44.0452 73.13 77.7379 73.7678 99.3915C74.4055 121.045 75.5481 123.762 73.4141 125.287C71.2802 126.811 61.1926 129.408 61.1926 129.408Z" fill="#FF3939"/>
<path d="M122.52 59.6083C119.948 62.0039 120.525 70.7034 127.921 71.8759C135.317 73.0485 136.997 60.7788 132.412 58.662C127.827 56.5451 125.471 56.8374 122.51 59.6026L122.52 59.6083Z" fill="#FF3939"/>
<path d="M24.1837 123.346C23.2728 137.464 34.6876 142.968 39.204 138.899C43.7205 134.831 46.3169 101.145 53.9797 82.2765C61.0299 64.9225 71.0304 54.1241 84.6654 45.8215C98.3004 37.519 89.5349 32.0423 86.1544 32.841C82.774 33.6397 60.2902 48.2326 49.6972 66.3047C39.1041 84.3767 24.1837 123.346 24.1837 123.346Z" fill="#FF3939"/>
<path d="M31.5954 139.714C31.3868 139.77 31.1781 139.825 30.9556 139.86C27.358 140.56 24.1088 139.037 22.0295 135.669C19.8666 132.174 23.8111 114.667 37.5677 84.5156C52.1366 52.6057 87.7693 30.8014 90.6423 29.7163C92.771 28.9136 95.7309 30.3148 96.7266 32.6072C97.304 33.9267 97.9637 37.3444 91.667 40.4574C51.3404 59.7683 38.9845 126.435 37.7075 133.967C37.2792 136.508 34.7073 138.871 31.5933 139.706L31.5954 139.714ZM91.5843 31.932C91.5843 31.932 91.5224 31.9485 91.4915 31.9568C88.8209 32.9628 53.7485 54.8488 39.7561 85.5107C25.1687 117.475 22.8796 132.476 24.069 134.41C26.1581 137.784 28.9935 137.794 30.4983 137.506C33.0707 136.999 35.0835 135.084 35.334 133.609C36.639 125.904 49.2109 58.1278 90.6175 38.3037C93.7331 36.7643 95.1649 35.0303 94.5249 33.5703C94.0322 32.4434 92.4497 31.6999 91.5843 31.932Z" fill="black"/>
<path d="M35.2962 142.672C35.2962 142.672 35.2421 142.686 35.2189 142.693C29.7418 144.012 27.2819 140.862 26.7461 139.018C26.5586 138.38 26.9277 137.718 27.5649 137.531C28.1882 137.322 28.8643 137.712 29.0517 138.35C29.1501 138.655 30.1619 141.44 34.6514 140.36C37.3246 139.734 80.0618 123.297 126.234 105.028C187.329 80.8524 212.859 69.8987 216.885 67.4608C215.429 64.3477 207.983 51.063 181.79 35.9467C155.689 20.8638 114.994 25.1164 95.7083 32.731C95.1031 32.9761 94.3915 32.6699 94.1521 32.0549C93.9127 31.44 94.2132 30.7382 94.8281 30.4987C115.132 22.4788 155.908 18.221 183.002 33.8575C210.096 49.494 218.09 63.1206 219.477 67.3954C219.585 67.739 219.553 68.1121 219.368 68.4432C218.914 69.2524 217.724 71.3937 128.417 106.745C84.8166 124.01 39.0206 141.673 35.3039 142.67L35.2962 142.672Z" fill="black"/>
<path d="M59.3073 128.307C58.7277 128.463 58.1094 128.165 57.8804 127.588C57.6409 126.973 57.9414 126.272 58.5564 126.032L212.993 64.9597C213.608 64.7203 214.309 65.0208 214.549 65.6357C214.788 66.2507 214.488 66.9525 213.873 67.1919L59.4365 128.264C59.3902 128.277 59.3438 128.289 59.3052 128.3L59.3073 128.307Z" fill="black"/>
<path d="M131.655 72.7633C130.519 73.0679 129.269 73.1959 128.023 73.0909C125.299 72.8772 123.103 71.6357 122.008 69.6846C120.597 67.1723 120.763 63.9306 122.428 61.6125C123.965 59.4692 126.451 58.5459 129.25 59.0708C132.488 59.6853 134.937 61.6211 135.966 64.3767C136.793 66.5982 136.532 69.0535 135.295 70.6192C134.522 71.5968 133.2 72.349 131.647 72.7654L131.655 72.7633ZM126.574 61.478C125.686 61.7162 124.938 62.2315 124.377 63.0115C123.26 64.5616 123.145 66.8204 124.096 68.5119C125.048 70.2112 127.085 70.6094 128.21 70.697C130.341 70.8626 132.579 70.188 133.421 69.1258C134.137 68.2132 134.261 66.6392 133.729 65.2084C133.298 64.065 132.093 62.044 128.813 61.4244C128.001 61.2694 127.252 61.2879 126.58 61.4682L126.574 61.478Z" fill="black"/>
<path d="M68.9142 124.506L62.1066 126.331C61.4653 126.503 60.8088 126.124 60.6368 125.483L59.7521 122.183C59.6112 121.658 59.8444 121.107 60.3094 120.833C61.2069 120.319 61.9983 119.842 62.6919 119.432C65.3622 117.838 66.4764 117.175 67.5163 117.501C67.9514 117.641 68.2981 117.945 68.4858 118.367C68.905 119.282 69.6246 122.46 69.7672 123.084C69.9097 123.709 69.5323 124.34 68.9064 124.508L68.9142 124.506ZM62.6441 123.702L67.1722 122.488C66.9592 121.601 66.7198 120.646 66.5324 120.009C65.9087 120.309 64.9098 120.908 63.9299 121.486C63.4361 121.775 62.9022 122.101 62.3142 122.441L62.6498 123.692L62.6441 123.702Z" fill="black"/>
<path d="M61.2219 123.032C61.0905 123.067 60.953 123.079 60.8092 123.068C60.1484 123.013 59.6612 122.431 59.7082 121.773C59.803 120.612 62.1447 93.1739 68.7258 79.1676L69.2668 78.0037C75.591 64.5219 82.748 49.2347 104.364 38.2622C104.889 37.9971 105.534 38.1472 105.878 38.6265C106.222 39.1058 106.175 39.7645 105.757 40.183C86.897 59.0553 71.0869 77.9961 68.5885 118.936C68.5492 119.593 67.9738 120.103 67.3172 120.064C66.6529 120.026 66.1523 119.457 66.1895 118.792C68.4631 81.524 81.5351 62.1329 97.9672 44.7398C82.8354 54.7192 77.0564 67.0527 71.4383 79.0283L70.8895 80.1942C64.4939 93.8112 62.1152 121.699 62.0908 121.979C62.0472 122.496 61.6778 122.909 61.2064 123.036L61.2219 123.032Z" fill="black"/>
<path d="M73.6852 122.622C73.5693 122.653 73.4416 122.67 73.3153 122.663C72.651 122.626 72.1447 122.066 72.1819 121.401C72.1914 121.159 73.5167 96.6015 79.0145 79.9453C84.1598 64.3528 101.334 46.1145 104.395 42.9498L103.752 39.5609C103.626 38.9071 104.038 38.283 104.71 38.161C105.363 38.0354 105.992 38.4633 106.11 39.1191L106.866 43.1155C106.937 43.5024 106.82 43.8983 106.539 44.1806C106.345 44.3818 86.6552 64.4539 81.2938 80.6925C75.8976 97.0481 74.5919 121.277 74.5747 121.522C74.543 122.052 74.1798 122.489 73.6852 122.622Z" fill="black"/>
<path d="M138.265 27.3578C138.033 27.42 137.775 27.4147 137.534 27.3217C136.917 27.0896 136.599 26.3965 136.839 25.7772L139.576 18.5331C139.808 17.916 140.503 17.6053 141.12 17.8374C141.738 18.0695 142.056 18.7627 141.816 19.3819L139.079 26.626C138.94 27.0029 138.628 27.2605 138.265 27.3578Z" fill="black"/>
<path d="M91.3458 40.1536C90.9362 40.2634 90.5015 40.0321 90.3742 39.619C90.2447 39.1982 90.4796 38.7459 90.9005 38.6165L138.332 23.8112C138.736 23.6782 139.206 23.9166 139.335 24.3375C139.464 24.7583 139.229 25.2106 138.809 25.34L91.3767 40.1453C91.3767 40.1453 91.3535 40.1515 91.3458 40.1536Z" fill="black"/>
<path d="M144.467 34.4579C144.236 34.5201 143.977 34.5148 143.737 34.4218C143.12 34.1897 142.802 33.4966 143.041 32.8773L145.779 25.6332C146.011 25.0161 146.706 24.7054 147.323 24.9375C147.94 25.1696 148.259 25.8628 148.019 26.482L145.282 33.7261C145.142 34.103 144.83 34.3606 144.467 34.4579Z" fill="black"/>
<path d="M103.783 46.907C103.381 47.0147 102.958 46.7968 102.82 46.4033C102.675 45.9866 102.892 45.5307 103.309 45.3859L144.495 30.9467C144.906 30.8116 145.367 31.0192 145.512 31.4359C145.657 31.8526 145.439 32.3085 145.023 32.4533L103.837 46.8925C103.837 46.8925 103.798 46.9028 103.775 46.909L103.783 46.907Z" fill="black"/>
<path d="M69.2526 59.0151C68.8508 59.1229 68.4279 58.905 68.2893 58.5114C68.1444 58.0947 68.3618 57.6389 68.7785 57.494L86.5858 51.2533C87.0025 51.1084 87.4583 51.3258 87.6032 51.7425C87.7481 52.1592 87.5307 52.615 87.114 52.7599L69.3067 59.0006C69.3067 59.0006 69.2681 59.011 69.2449 59.0172L69.2526 59.0151Z" fill="black"/>
<path d="M157.123 39.1235C156.891 39.1856 156.633 39.1803 156.393 39.0874C155.776 38.8553 155.457 38.1621 155.697 37.5428L158.434 30.2988C158.666 29.6816 159.362 29.3709 159.979 29.603C160.596 29.8351 160.914 30.5283 160.675 31.1475L157.937 38.3916C157.798 38.7685 157.486 39.0261 157.123 39.1235Z" fill="black"/>
<path d="M91.7552 60.9576C91.3611 61.0632 90.9403 60.853 90.7919 60.4539C90.6393 60.0392 90.8566 59.5834 91.2713 59.4308L157.146 35.5969C157.545 35.4485 158.024 35.6596 158.169 36.0763C158.322 36.491 158.105 36.9468 157.69 37.0994L91.8149 60.9333C91.8149 60.9333 91.7686 60.9457 91.7454 60.9519L91.7552 60.9576Z" fill="black"/>
<path d="M58.4214 73.0184C58.0273 73.1241 57.6065 72.9139 57.4581 72.5147C57.3055 72.1001 57.5228 71.6442 57.9374 71.4916L77.0162 64.5869C77.4308 64.4343 77.8867 64.6517 78.0392 65.0663C78.1918 65.481 77.9745 65.9368 77.5598 66.0894L58.4811 72.9941C58.4811 72.9941 58.4348 73.0065 58.4116 73.0127L58.4214 73.0184Z" fill="black"/>
<path d="M170.636 43.9569C170.404 44.019 170.146 44.0137 169.905 43.9208C169.288 43.6887 168.97 42.9955 169.21 42.3763L171.947 35.1322C172.179 34.515 172.872 34.1966 173.491 34.4365C174.109 34.6685 174.427 35.3617 174.187 35.981L171.45 43.225C171.311 43.6019 170.999 43.8595 170.636 43.9569Z" fill="black"/>
<path d="M83.2003 74.3671C82.8062 74.4727 82.3854 74.2625 82.239 73.8711C82.0864 73.4565 82.3017 72.9929 82.7163 72.8403L170.651 40.4327C171.076 40.2857 171.53 40.4954 171.682 40.91C171.835 41.3246 171.62 41.7882 171.205 41.9408L83.2677 74.3407C83.2677 74.3407 83.2214 74.3531 83.1982 74.3593L83.2003 74.3671Z" fill="black"/>
<path d="M51.9472 85.8778C51.5531 85.9835 51.1323 85.7733 50.9859 85.3818C50.8333 84.9672 51.0486 84.5036 51.4633 84.351L70.104 77.481C70.5284 77.334 70.9822 77.5437 71.1348 77.9583C71.2874 78.3729 71.0721 78.8365 70.6575 78.9891L52.0167 85.8592C52.0167 85.8592 51.9704 85.8716 51.9472 85.8778Z" fill="black"/>
<path d="M178.155 51.118C177.923 51.1802 177.665 51.1749 177.424 51.0819C176.807 50.8498 176.489 50.1566 176.729 49.5374L179.466 42.2933C179.698 41.6762 180.391 41.3578 181.011 41.5976C181.628 41.8297 181.946 42.5229 181.706 43.1421L178.969 50.3862C178.83 50.7631 178.518 51.0206 178.155 51.118Z" fill="black"/>
<path d="M79.5304 86.0105C79.1363 86.1162 78.7155 85.906 78.5769 85.5124C78.4243 85.0978 78.6319 84.6363 79.0465 84.4837L178.178 47.5913C178.591 47.431 179.054 47.6463 179.207 48.0609C179.359 48.4756 179.152 48.9371 178.737 49.0896L79.6056 85.982C79.6056 85.982 79.5592 85.9945 79.5361 86.0007L79.5304 86.0105Z" fill="black"/>
<path d="M47.1762 98.0488C46.7822 98.1545 46.3614 97.9443 46.2227 97.5508C46.0701 97.1361 46.2777 96.6746 46.6923 96.5221L65.7543 89.4314C66.1535 89.2829 66.6304 89.4863 66.783 89.901C66.9356 90.3156 66.728 90.7771 66.3134 90.9297L47.2514 98.0204C47.2514 98.0204 47.2051 98.0328 47.1819 98.039L47.1762 98.0488Z" fill="black"/>
<path d="M185.249 58.393C185.017 58.4551 184.759 58.4498 184.519 58.3569C183.902 58.1248 183.583 57.4316 183.823 56.8124L186.56 49.5683C186.792 48.9511 187.488 48.6405 188.105 48.8726C188.722 49.1046 189.04 49.7978 188.801 50.4171L186.063 57.6611C185.924 58.038 185.612 58.2956 185.249 58.393Z" fill="black"/>
<path d="M76.677 96.1269C76.2829 96.2326 75.8621 96.0224 75.7158 95.6309C75.5632 95.2163 75.7785 94.7527 76.1952 94.6079L185.274 54.8743C185.683 54.7315 186.145 54.939 186.297 55.3537C186.45 55.7683 186.235 56.2319 185.818 56.3767L76.7388 96.1103C76.7388 96.1103 76.6925 96.1228 76.6693 96.129L76.677 96.1269Z" fill="black"/>
<path d="M43.846 108.086C43.4519 108.191 43.0311 107.981 42.8847 107.59C42.7322 107.175 42.9474 106.711 43.3641 106.567L63.7073 99.1572C64.1142 99.0067 64.5855 99.2199 64.7304 99.6366C64.8752 100.053 64.6677 100.515 64.251 100.66L43.9078 108.069C43.9078 108.069 43.8614 108.081 43.8383 108.088L43.846 108.086Z" fill="black"/>
<path d="M196.957 62.3935C196.725 62.4556 196.467 62.4503 196.227 62.3574C195.61 62.1253 195.291 61.4321 195.531 60.8129L198.268 53.5688C198.5 52.9516 199.196 52.641 199.813 52.873C200.43 53.1051 200.748 53.7983 200.509 54.4176L197.771 61.6616C197.632 62.0385 197.32 62.2961 196.957 62.3935Z" fill="black"/>
<path d="M75.4774 106.015C75.0833 106.121 74.6703 105.909 74.526 105.525C74.3734 105.11 74.5809 104.649 74.9956 104.496L196.982 58.8748C197.389 58.7243 197.858 58.9298 198.011 59.3444C198.164 59.759 197.956 60.2205 197.541 60.3731L75.5547 105.994C75.5547 105.994 75.5083 106.007 75.4774 106.015Z" fill="black"/>
<path d="M40.9319 118.93C40.5378 119.036 40.1247 118.824 39.9804 118.44C39.8278 118.025 40.0354 117.564 40.45 117.411L61.6788 109.475C62.078 109.326 62.5549 109.53 62.7075 109.944C62.8601 110.359 62.6526 110.82 62.2379 110.973L41.0091 118.91C41.0091 118.91 40.9628 118.922 40.9319 118.93Z" fill="black"/>
<path d="M209.03 65.6576C208.798 65.7197 208.54 65.7144 208.3 65.6215C207.683 65.3894 207.364 64.6962 207.604 64.077L210.342 56.8329C210.574 56.2157 211.267 55.8973 211.886 56.1371C212.503 56.3692 212.822 57.0624 212.582 57.6817L209.844 64.9257C209.705 65.3026 209.393 65.5602 209.03 65.6576Z" fill="black"/>
<path d="M74.2427 115.805C73.8563 115.908 73.4376 115.706 73.2933 115.322C73.133 114.909 73.3406 114.448 73.7531 114.288L209.048 62.141C209.461 61.9807 209.922 62.1882 210.082 62.6008C210.243 63.0133 210.035 63.4748 209.623 63.6351L74.3277 115.782C74.3277 115.782 74.2736 115.796 74.2427 115.805Z" fill="black"/>
<path d="M37.9264 129.808C37.54 129.911 37.1213 129.709 36.977 129.325C36.8167 128.913 37.0242 128.451 37.4368 128.291L60.0476 119.578C60.47 119.423 60.9217 119.625 61.082 120.037C61.2423 120.45 61.0348 120.912 60.6222 121.072L38.0113 129.785C38.0113 129.785 37.9573 129.8 37.9264 129.808Z" fill="black"/>
</g>
<defs>
<clipPath id="clip0_242_3692">
<rect width="208.52" height="94.784" fill="white" transform="translate(0 54.0039) rotate(-15.0099)"/>
</clipPath>
</defs>
</svg>
